X:135
T:Leprechaun
M:12/8
L:1/8
Q:260
K:C
A2B|c2A {c}BAG A2G E2D|E^FG A2B c2d {f}e2d|
c3 {c}BAG A2G E2D|E^FG A2B A3 A2B|
c/2d/2cA BAG A2G {F}E2D|E^FG A2B c2d e2d|
c2A {c}BAG A2G {EF}E2D|E^FG A2B A3 A3|
Bcd e2^f {f}g2e fed|e2a a2^f g2f {f}e2d|
Bcd e2^f g2e fed|e2a a2^g {b}a3 a3|
Bcd e2^f g2e fed|e2a {b}a2^f g2f e2d|
c/2d/2cA {c}BAG A2G E2D|E^FG A2B A3 {B}A4|
